src/status/16/battery-missing.svg

<svg viewBox="0 0 16 16" xmlns="http://www.w3.org/2000/svg">
 <path d="m6 2v2h-2v10h8v-10h-2v-2h-4zm-1 4h1l2 2 2-2h1v1l-2 2 2 2v1h-1l-2-2-2 2h-1v-1l2-2-2-2v-1z" fill="#2e3440" opacity=".4"/>
</svg>

<svg xmlns="http://www.w3.org/2000/svg" viewBox="0 0 16 16">
 <path d="M 6,2 6,4 4,4 4,14 12,14 12,4 10,4 10,2 6,2 z m -1,4 1,0 2,2 2,-2 1,0 0,1 -2,2 2,2 0,1 -1,0 L 8,10 6,12 5,12 5,11 7,9 5,7 5,6 z" style="fill:#2e3440;opacity:0.4;fill-opacity:1"/>
</svg>
